X:192
M:4/4
L:1/4
K:Eb
z2 E2 | B2 G2 | E2 B2 | c c B2 | z B c d | e d c c | B2 z B | c2 B2 | A G F2 | E4 | z2 E2 | B2 G2 | E2 B2 | c c B2 | z B c d | e d c c | B2 z B | c2 B2 | A G F2 | E4 | B2 G2 | B2 G2 | G G F F | G G F F | G G F !fermata!E | !sintro!e2 B2 | c2 B2 | A G F2 | E4 !eintro!|]
